overrides/.icons/wp/hammer.svg

<?xml version="1.0" encoding="UTF-8" standalone="no"?>
<svg
   width="24"
   height="24"
   version="1.1"
   viewBox="0 0 26.181818 26.181818"
   id="svg1"
   sodipodi:docname="hammer.svg"
   inkscape:version="1.3.2 (091e20e, 2023-11-25, custom)"
   xmlns:inkscape="http://www.inkscape.org/namespaces/inkscape"
   xmlns:sodipodi="http://sodipodi.sourceforge.net/DTD/sodipodi-0.dtd"
   xmlns="http://www.w3.org/2000/svg"
   xmlns:svg="http://www.w3.org/2000/svg">
  <defs
     id="defs1" />
  <sodipodi:namedview
     id="namedview1"
     pagecolor="#ffffff"
     bordercolor="#111111"
     borderopacity="1"
     inkscape:showpageshadow="0"
     inkscape:pageopacity="0"
     inkscape:pagecheckerboard="1"
     inkscape:deskcolor="#d1d1d1"
     inkscape:zoom="6.9907148"
     inkscape:cx="5.2212114"
     inkscape:cy="9.7987119"
     inkscape:window-width="1366"
     inkscape:window-height="697"
     inkscape:window-x="-8"
     inkscape:window-y="-8"
     inkscape:window-maximized="1"
     inkscape:current-layer="svg1" />
  <path
     d="m 14.072573,2.1829695 c -0.16516,0.00876 -0.315882,0.067878 -0.429118,0.1811054 L 9.2833287,6.7246381 C 8.9813881,7.0265786 9.0622678,7.5936089 9.4648573,7.9961962 l 1.4535207,1.4535211 c 0.402609,0.4026091 0.969618,0.483467 1.271558,0.1815308 L 12.999147,10.440459 17.359274,6.0798961 16.550478,5.2710996 C 16.852418,4.9691591 16.771124,4.4021288 16.368521,3.9995414 L 14.915437,2.5460203 C 14.663809,2.2943923 14.347817,2.168371 14.07256,2.1829673 Z m 4.657944,3.9831102 A 1.2850636,1.2850636 0 0 0 17.82415,6.5449072 l -0.0021,-0.00214 -15.2634981,15.2639338 0.00213,0.0021 a 1.2850636,1.2850636 0 0 0 -0.3788638,0.906407 1.2850636,1.2850636 0 0 0 1.2847799,1.284781 1.2850636,1.2850636 0 0 0 0.906367,-0.378828 l 0.00214,0.0021 15.263934,-15.2634978 -0.0021,-0.00214 A 1.2850636,1.2850636 0 0 0 20.01533,7.4512562 1.2850636,1.2850636 0 0 0 18.73055,6.1660618 Z m 1.371267,2.6565704 -4.360563,4.3601269 0.809211,0.809211 c -0.301941,0.30194 -0.221061,0.868971 0.181529,1.271558 l 1.453521,1.453521 c 0.402609,0.402609 0.969617,0.483467 1.271558,0.181531 l 4.360563,-4.360127 c 0.30194,-0.30194 0.220646,-0.869385 -0.181957,-1.271994 L 22.182125,9.8133702 C 21.779516,9.4107611 21.212508,9.3294669 20.910567,9.6314139 Z"
     id="path1"
     style="stroke-width:0.999999" />
</svg>

<?xml version="1.0" encoding="UTF-8"?>
<svg id="svg1" width="24" height="24" version="1.1" viewBox="0 0 26.182 26.182" xmlns="http://www.w3.org/2000/svg">
 <path id="path1" d="m14.073 2.183c-0.16516 0.00876-0.31588 0.067878-0.42912 0.18111l-4.3601 4.3606c-0.30194 0.30194-0.22106 0.86897 0.18153 1.2716l1.4535 1.4535c0.40261 0.40261 0.96962 0.48347 1.2716 0.18153l0.80921 0.80921 4.3601-4.3606-0.8088-0.8088c0.30194-0.30194 0.22065-0.86897-0.18196-1.2716l-1.4531-1.4535c-0.25163-0.25163-0.56762-0.37765-0.84288-0.36305zm4.6579 3.9831a1.2851 1.2851 0 0 0-0.90637 0.37883l-0.0021-0.00214-15.263 15.264 0.00213 0.0021a1.2851 1.2851 0 0 0-0.37886 0.90641 1.2851 1.2851 0 0 0 1.2848 1.2848 1.2851 1.2851 0 0 0 0.90637-0.37883l0.00214 0.0021 15.264-15.263-0.0021-0.00214a1.2851 1.2851 0 0 0 0.37839-0.90637 1.2851 1.2851 0 0 0-1.2848-1.2852zm1.3713 2.6566-4.3606 4.3601 0.80921 0.80921c-0.30194 0.30194-0.22106 0.86897 0.18153 1.2716l1.4535 1.4535c0.40261 0.40261 0.96962 0.48347 1.2716 0.18153l4.3606-4.3601c0.30194-0.30194 0.22065-0.86938-0.18196-1.272l-1.4535-1.4531c-0.40261-0.40261-0.96962-0.4839-1.2716-0.18196z"/>
</svg>
